X: 2017
T: Sunny But Brisk
R: hornpipe
C: Rick Gagne
N: 1988 on tenor banjo and whistle
N: second half more like key of B minor
Q: 1/4=160
M: 4/4
K: D
(3ABc | "D"dABA d2DE | FABA d2de | "Bm"fdfa "G"gfed |\
"A"cdec Agfe | 
"D"dABA d2DE | FABA d2de | "Bm"fdfa "G"gfea | "A"gfec "D"d2 :|
de | "Bm"fB~B2 "Em"afge | "A"Aeed efge | "Bm"fB~B2 "G"afge |\
"D"Addc dcde | 
"Bm"fB~B2 "Em"afge | "A"Aeed efge | "G"afge "Em"fdec | "Bm"ABBA B2 :|
